!!!OTL: Die Schlangenkoechin 'Wo bist du denn mit der Kunkel gewesen,
!!!ARE: Europa, Mitteleuropa, Deutschland / France, Elsass
!!!YOR: 4, S. 212
!!    1933 gedruckt in Heidelberg
!!!SCT: Q0079V
!!!YEM: Copyright 1995, estate of Helmut Schaffrath.
**kern	**text
*ICvox	*
*M3/4	*
*k[f#]	*
*G:	*
!LO:TX:a:t=25 Elſaß	!
{4d	'Wo
=1	=1
2.g	biſt
=2	=2
4a	du
4g	denn
8a	mit
8a	der
=3	=3
4b	Kun-
4b	-kel
4dd	ge-
=4	=4
4g	-we-
4g}	-ſen,
{4g	Mad-
=5	=5
4cc	-le-
4cc	-nel,
4cc	mein
=6	=6
4b	her-
4b	-ʒi-
4b	-ges
=7	=7
[2.a	Kind?'
=8	=8
4a]	.
4r}	.
{4a	'Bei
=9	=9
4cc	mei-
4cc	-ner
8cc	Schwieger-
8cc	.
=10	=10
4ee	-mutter
4.cc	.
8cc	da
=11	=11
4b	bin
4b	ich
4b	ge-
=12	=12
4dd	-we-
4b}	-ſen.
{4g	O
=13	=13
2.a	jeh!
=14	=14
4cc	Mut-
4a	-ter,
4f#	was
=15	=15
[2.g	qwh'!
=16	=16
4g]	.
4r}	.
==	==
!!!AGN: Ballade, Mord; Reigen - Tanz, antiphonal
!! Zweite und vierte Zeile = Refrain.
!!!ONB: ESAC (Essen Associative Code) Database: BALLADE
!!!AMT: simple triple
!!!AIN: vox
!!!EED: Helmut Schaffrath
!!!EEV: 1.0
!!!source: Deutsche Volkslieder mit ihren Melodien. Herausgegeben vom Deutschen Volksliedarchiv. Vierter Band. Berlin 1959.
!!!page: 212
!!!ENC: Anna Maria Matuszewska
!!!EEV: 2025/02/25
*-	*-
